img/icn_settings.svg

<svg width="27" height="27" viewBox="0 0 27 27" fill="none" xmlns="http://www.w3.org/2000/svg">
<path fill-rule="evenodd" clip-rule="evenodd" d="M12.1211 4.89868L13.1211 0.863281L14.3293 5.06222L12.1211 4.89868ZM15.1348 5.03177L17.3941 1.54179L17.1695 5.90533L15.1348 5.03177ZM21.215 3.57155L17.9425 6.13583L19.5819 7.62423L21.215 3.57155ZM20.2403 8.09158L24.1693 6.73242L21.3058 10.0326L20.2403 8.09158ZM25.9366 10.6816L21.7792 10.6875L22.1547 12.8698L25.9366 10.6816ZM22.3924 13.6428L26.3253 14.9907L22.0371 15.8284L22.3924 13.6428ZM25.2932 19.1924L22.0134 16.6375L20.9658 18.5884L25.2932 19.1924ZM20.6828 19.3475L22.9521 22.831L19.0571 20.851L20.6828 19.3475ZM19.556 25.5118L18.5444 21.4793L16.5178 22.3716L19.556 25.5118ZM15.8296 22.8019L15.4732 26.944L13.6229 22.9858L15.8296 22.8019ZM11.183 26.9766L12.8019 23.1473L10.6464 22.6404L11.183 26.9766ZM9.85582 22.516L7.07837 25.6096L7.98283 21.3349L9.85582 22.516ZM3.64041 22.9833L7.27372 20.9625L5.88729 19.236L3.64041 22.9833ZM5.33525 18.6549L1.24199 19.3827L4.58647 16.571L5.33525 18.6549ZM0.143265 15.1982L4.25046 15.8426L4.22092 13.6285L0.143265 15.1982ZM4.13702 12.8302L0.463412 10.8836L4.82992 10.7271L4.13702 12.8302ZM2.16773 6.90707L5.00746 9.94358L6.34732 8.18065L2.16773 6.90707ZM6.76782 7.49536L5.07139 3.69976L8.60863 6.26469L6.76782 7.49536ZM8.85946 1.60959L9.22774 5.75071L11.3689 5.18639L8.85946 1.60959Z" fill="#929292"/>
<circle cx="13" cy="14" r="9" stroke="#929292"/>
<path d="M7.69971 22.3979L12.7708 14.573L8.34668 6.39795" stroke="#979797"/>
<path d="M12.9126 14.7153H22.2573" stroke="#979797"/>
</svg>

<svg width="27" height="27" fill="none" xmlns="http://www.w3.org/2000/svg"><path fill-rule="evenodd" clip-rule="evenodd" d="m12.121 4.899 1-4.036 1.208 4.2-2.208-.164Zm3.014.133 2.26-3.49-.226 4.363-2.034-.873Zm6.08-1.46-3.273 2.564 1.64 1.488 1.633-4.052Zm-.975 4.52 3.93-1.36-2.864 3.3-1.066-1.94Zm5.697 2.59-4.158.005.376 2.183 3.782-2.188Zm-3.545 2.96 3.933 1.349-4.288.837.355-2.185Zm2.901 5.55-3.28-2.555-1.047 1.951 4.327.604Zm-4.61.155 2.27 3.484-3.896-1.98 1.626-1.503Zm-1.127 6.165-1.012-4.033-2.026.893 3.038 3.14Zm-3.726-2.71-.357 4.142-1.85-3.958 2.207-.184Zm-4.647 4.175 1.619-3.83-2.156-.507.537 4.337Zm-1.327-4.461L7.078 25.61l.905-4.275 1.873 1.181Zm-6.216.467 3.634-2.02-1.387-1.727-2.247 3.747Zm1.695-4.328-4.093.728 3.344-2.812.75 2.084ZM.143 15.198l4.107.645-.03-2.214-4.077 1.57Zm3.994-2.368L.463 10.884l4.367-.157-.693 2.103Zm-1.97-5.923 2.84 3.037 1.34-1.763-4.18-1.274Zm4.6.588L5.072 3.7 8.61 6.265l-1.841 1.23ZM8.86 1.61l.369 4.14 2.14-.564L8.86 1.61Z" fill="#929292"/><circle cx="13" cy="14" r="9" stroke="#929292"/><path d="m7.7 22.398 5.07-7.825-4.423-8.175M12.913 14.715h9.344" stroke="#979797"/></svg>
